dist/img/icons/registration/settings.svg

<svg width="27" height="27" viewBox="0 0 27 27" fill="none" xmlns="http://www.w3.org/2000/svg">
<g clip-path="url(#clip0)">
<path d="M16.2511 16.0027H15.7744C15.5951 16.003 15.4348 15.8912 15.3732 15.7228C15.3203 15.5841 15.2635 15.4485 15.2024 15.3141C15.1265 15.1508 15.1612 14.9573 15.2891 14.8305L15.6288 14.4904C16.1332 13.9816 16.1323 13.161 15.6267 12.6535L14.4021 11.4289C13.8938 10.9236 13.073 10.9236 12.5647 11.4289L12.225 11.7682C12.0979 11.8956 11.9048 11.9302 11.7414 11.8548C11.6071 11.7937 11.4714 11.737 11.3323 11.6815C11.1631 11.6203 11.0505 11.4593 11.0511 11.2794V10.8027C11.0511 10.0847 10.4691 9.50269 9.75111 9.50269H8.01777C7.29979 9.50269 6.71777 10.0847 6.71777 10.8027V11.2794C6.7181 11.4586 6.60624 11.619 6.43784 11.6806C6.29917 11.7335 6.16354 11.7903 6.02921 11.8514C5.86579 11.9269 5.67263 11.8923 5.54561 11.7647L5.20544 11.425C4.69725 10.92 3.87673 10.92 3.36854 11.425L2.14394 12.6535C1.63867 13.1617 1.63867 13.9825 2.14394 14.4908L2.48324 14.8305C2.61118 14.9573 2.64585 15.1508 2.56991 15.3141C2.50881 15.4485 2.45204 15.5841 2.39874 15.7232C2.33672 15.8926 2.17482 16.0045 1.99444 16.0027H1.51777C0.799794 16.0027 0.217773 16.5847 0.217773 17.3027V19.036C0.217773 19.754 0.799794 20.336 1.51777 20.336H1.99444C2.17373 20.3357 2.33412 20.4475 2.39571 20.616C2.44857 20.7546 2.50534 20.8903 2.56644 21.0246C2.64238 21.188 2.60772 21.3814 2.47977 21.5082L2.14004 21.8484C1.6351 22.3565 1.6351 23.1771 2.14004 23.6853L3.36464 24.9099C3.87289 25.4151 4.69373 25.4151 5.20197 24.9099L5.54171 24.5706C5.66878 24.4431 5.86189 24.4085 6.02531 24.4839C6.15964 24.545 6.29527 24.6018 6.43437 24.6572C6.60451 24.7177 6.7181 24.8788 6.71777 25.0594V25.536C6.71777 26.254 7.29979 26.836 8.01777 26.836H9.75111C10.4691 26.836 11.0511 26.254 11.0511 25.536V25.0594C11.0508 24.8801 11.1626 24.7197 11.331 24.6581C11.4697 24.6052 11.6053 24.5485 11.7397 24.4874C11.9031 24.4118 12.0963 24.4464 12.2233 24.574L12.5634 24.9138C13.0723 25.4179 13.8926 25.4169 14.4003 24.9116L15.6249 23.687C16.1302 23.1787 16.1302 22.3579 15.6249 21.8497L15.2856 21.5099C15.1577 21.3831 15.123 21.1897 15.199 21.0263C15.2601 20.892 15.3168 20.7564 15.3723 20.6173C15.4335 20.448 15.5944 20.3354 15.7744 20.336H16.2511C16.9691 20.336 17.5511 19.754 17.5511 19.036V17.3027C17.5511 16.5847 16.9691 16.0027 16.2511 16.0027ZM16.6844 19.036C16.6844 19.2753 16.4904 19.4694 16.2511 19.4694H15.7744C15.2358 19.4714 14.7537 19.8043 14.5611 20.3074C14.5152 20.4288 14.4655 20.5482 14.412 20.6658C14.1893 21.1576 14.2926 21.7359 14.672 22.1201L15.0109 22.4594C15.1802 22.6285 15.1804 22.9029 15.0112 23.0722C15.0111 23.0723 15.011 23.0724 15.0109 23.0725L13.7863 24.2971C13.6171 24.4663 13.3428 24.4663 13.1736 24.2971L12.8338 23.9578C12.4499 23.5781 11.8714 23.4747 11.3796 23.6978C11.2621 23.7511 11.1425 23.801 11.0221 23.8469C10.5194 24.0394 10.1866 24.521 10.1844 25.0594V25.536C10.1844 25.7753 9.99042 25.9694 9.75111 25.9694H8.01777C7.77847 25.9694 7.58444 25.7753 7.58444 25.536V25.0594C7.58244 24.5207 7.24947 24.0386 6.74637 23.846C6.62504 23.8001 6.5056 23.7504 6.38801 23.697C5.89617 23.4743 5.31794 23.5777 4.93374 23.957L4.59444 24.2958C4.42533 24.4651 4.15092 24.4653 3.9816 24.2961C3.98149 24.296 3.98138 24.2959 3.98127 24.2958L2.75667 23.0725C2.58751 22.9033 2.58751 22.629 2.75667 22.4598L3.09597 22.1201C3.47541 21.7359 3.57876 21.1576 3.35597 20.6658C3.30267 20.5484 3.25284 20.4288 3.20691 20.3083C3.01483 19.805 2.53307 19.4717 1.99444 19.4694H1.51777C1.27847 19.4694 1.08444 19.2753 1.08444 19.036V17.3027C1.08444 17.0634 1.27847 16.8694 1.51777 16.8694H1.99444C2.53313 16.8673 3.01521 16.5344 3.20777 16.0313C3.25371 15.91 3.30338 15.7905 3.35684 15.6729C3.57963 15.1811 3.47622 14.6028 3.09684 14.2187L2.75624 13.8794C2.58692 13.7102 2.58675 13.4358 2.75592 13.2665C2.75602 13.2664 2.75613 13.2663 2.75624 13.2662L3.98084 12.0416C4.15006 11.8724 4.42436 11.8724 4.59357 12.0416L4.93331 12.3809C5.31729 12.7606 5.89579 12.8641 6.38757 12.6409C6.50501 12.5876 6.62461 12.5378 6.74507 12.4918C7.2485 12.2999 7.582 11.8181 7.58444 11.2794V10.8027C7.58444 10.5634 7.77847 10.3694 8.01777 10.3694H9.75111C9.99042 10.3694 10.1844 10.5634 10.1844 10.8027V11.2794C10.1864 11.818 10.5194 12.3001 11.0225 12.4927C11.1438 12.5386 11.2633 12.5883 11.3809 12.6418C11.8727 12.8649 12.4512 12.7615 12.8351 12.3818L13.1744 12.0429C13.3443 11.8749 13.6177 11.8749 13.7876 12.0429L15.0122 13.2675C15.1814 13.4367 15.1814 13.711 15.0122 13.8802L14.6729 14.22C14.2935 14.6041 14.1901 15.1824 14.4129 15.6742C14.4662 15.7917 14.516 15.9113 14.562 16.0317C14.7545 16.5344 15.2361 16.8672 15.7744 16.8694H16.2511C16.4904 16.8694 16.6844 17.0634 16.6844 17.3027V19.036Z" fill="white"/>
<path d="M12.7758 17.996C12.7714 17.892 12.7641 17.7884 12.7515 17.6853C12.7376 17.5743 12.7212 17.4643 12.6982 17.3564C12.683 17.2857 12.6631 17.216 12.644 17.1458C12.6198 17.0565 12.5925 16.9685 12.5621 16.8819C12.5409 16.8216 12.5188 16.7618 12.4963 16.7025C12.4405 16.5637 12.3767 16.4282 12.3052 16.2969C12.2995 16.2869 12.2961 16.2761 12.2904 16.2661C12.1777 16.0655 12.0472 15.8753 11.9004 15.698C11.8879 15.6824 11.8736 15.6677 11.8606 15.6525C11.8008 15.5819 11.7392 15.5134 11.6747 15.448C11.6409 15.4129 11.6053 15.3799 11.5698 15.3461C11.5265 15.3058 11.4831 15.266 11.4398 15.2278C11.3872 15.1822 11.3336 15.138 11.279 15.0952L11.208 15.0424C10.5374 14.5401 9.72217 14.2689 8.88442 14.2693C8.84109 14.2693 8.79776 14.2758 8.75443 14.2775C8.66213 14.2801 8.56939 14.2853 8.47623 14.2949C8.42726 14.3001 8.37786 14.3057 8.32889 14.3126C8.18762 14.3312 8.04744 14.3574 7.90899 14.3911C5.82244 14.9302 4.56805 17.0589 5.10722 19.1454C5.46255 20.5204 6.53679 21.5938 7.91202 21.948C7.91896 21.948 7.92632 21.9501 7.93369 21.9519C8.08335 21.9892 8.23497 22.0182 8.38782 22.0385C8.48879 22.0511 8.58976 22.0537 8.69116 22.0585C8.75876 22.0619 8.82116 22.0719 8.89179 22.0719C9.01529 22.0719 9.14356 22.0637 9.27442 22.0507C9.28829 22.0507 9.30216 22.0468 9.31776 22.045C9.42306 22.0333 9.52966 22.0177 9.63842 21.9961C9.68176 21.9878 9.72206 21.977 9.76366 21.9675C9.83992 21.9497 9.91576 21.9311 9.99376 21.9081C10.0544 21.8899 10.1134 21.8687 10.1727 21.8479C10.2321 21.8271 10.2936 21.8045 10.3552 21.7811C10.4167 21.7577 10.4683 21.7309 10.5242 21.7049C10.597 21.6715 10.6693 21.6386 10.7408 21.5996H10.7434C11.1478 21.3831 11.5214 21.1133 11.8541 20.7975C11.9439 20.7136 12.0221 20.618 12.0863 20.5132C12.4245 19.971 12.6467 19.3646 12.7389 18.7322C12.7511 18.6486 12.7619 18.5649 12.7684 18.4796C12.7745 18.4011 12.7788 18.3231 12.7805 18.2451C12.7805 18.2204 12.784 18.197 12.784 18.1723C12.7844 18.1112 12.7784 18.0549 12.7758 17.996ZM11.9121 18.2798C11.9121 18.3158 11.9091 18.3517 11.9069 18.3873C11.8991 18.4921 11.8857 18.597 11.8679 18.7023C11.706 19.6033 11.1466 20.3833 10.3452 20.8256C10.2915 20.8538 10.2386 20.8802 10.1857 20.9045L10.1498 20.9218C9.89799 21.0361 9.63225 21.1166 9.35936 21.161C9.34029 21.1641 9.32079 21.1675 9.30129 21.1701C9.24712 21.1779 9.19382 21.1844 9.14096 21.1892C9.07119 21.1953 9.00099 21.1987 8.92949 21.2C8.89916 21.2 8.86926 21.2 8.83893 21.2C8.73639 21.1988 8.63401 21.1925 8.53212 21.181L8.48012 21.1749C8.36096 21.1593 8.24277 21.137 8.12609 21.1082C6.50315 20.6928 5.52425 19.0404 5.9396 17.4174C6.21406 16.345 7.05094 15.5073 8.12306 15.2317V15.2313C8.37201 15.1685 8.62767 15.1364 8.88442 15.136C9.0083 15.1367 9.13207 15.1451 9.25492 15.1611C9.28786 15.165 9.32036 15.1711 9.35286 15.1758C9.44646 15.1906 9.53919 15.2092 9.63062 15.2326C9.66052 15.2404 9.69042 15.2473 9.71989 15.2556C9.95032 15.3221 10.1721 15.4155 10.3807 15.5338C10.4141 15.5533 10.4466 15.5736 10.4795 15.594C10.548 15.6373 10.6143 15.6807 10.6797 15.7301C10.7148 15.7556 10.7504 15.7808 10.7842 15.8081C10.8692 15.876 10.9506 15.9483 11.0281 16.0247C11.0589 16.0559 11.0871 16.0902 11.117 16.1227C11.1668 16.1768 11.2153 16.2323 11.2617 16.2908C11.2938 16.3311 11.3245 16.3727 11.3549 16.4147C11.3982 16.4771 11.4415 16.5421 11.4805 16.608C11.5022 16.644 11.5239 16.6791 11.546 16.7159C11.6019 16.8188 11.6516 16.9248 11.695 17.0335C11.7124 17.0769 11.7271 17.1202 11.7427 17.1635C11.7709 17.2433 11.7951 17.3239 11.8164 17.4053C11.8272 17.4487 11.8393 17.4872 11.8484 17.5293C11.8737 17.6464 11.8921 17.7649 11.9035 17.8842C11.9061 17.9158 11.9061 17.9479 11.9082 17.9795C11.9143 18.0792 11.916 18.1793 11.9121 18.2798Z" fill="white"/>
<path d="M24.9178 9.93594H23.555C23.3732 9.93778 23.2107 9.82333 23.1511 9.65167C23.0167 9.24916 22.8541 8.85656 22.6645 8.4769C22.584 8.31294 22.6175 8.11583 22.7477 7.98767L23.714 7.02004C24.2212 6.51244 24.2212 5.68987 23.714 5.18227L21.8715 3.34277C21.3639 2.83555 20.5413 2.83555 20.0337 3.34277L19.0678 4.30824C18.9398 4.43835 18.743 4.47204 18.579 4.39187C18.1993 4.20126 17.8066 4.03778 17.4038 3.90264C17.2314 3.84365 17.1162 3.68093 17.1178 3.49877V2.13594C17.1178 1.41796 16.5358 0.835938 15.8178 0.835938H13.2178C12.4998 0.835938 11.9178 1.41796 11.9178 2.13594V3.49877C11.9196 3.6805 11.8052 3.84305 11.6335 3.90264C11.231 4.03773 10.8384 4.2011 10.4588 4.39144C10.2948 4.4722 10.0976 4.43867 9.96954 4.30824L9.00191 3.3419C8.49372 2.83615 7.67233 2.83615 7.16414 3.3419L5.32507 5.18097C4.81759 5.68862 4.81759 6.51152 5.32507 7.01917L6.74597 8.44267C6.91784 8.60918 7.1922 8.60485 7.35871 8.43292C7.52115 8.26522 7.52153 7.99894 7.35957 7.8308L5.93781 6.40774C5.76864 6.23852 5.76864 5.96422 5.93781 5.795L7.77687 3.95594C7.94609 3.78677 8.22039 3.78677 8.38961 3.95594L9.35767 4.92227C9.74935 5.31628 10.3495 5.41475 10.8466 5.16667C11.1899 4.9948 11.5448 4.84725 11.9087 4.7251C12.434 4.54728 12.7867 4.05338 12.7845 3.49877V2.13594C12.7845 1.89663 12.9785 1.7026 13.2178 1.7026H15.8178C16.0571 1.7026 16.2511 1.89663 16.2511 2.13594V3.49877C16.2489 4.05328 16.6017 4.547 17.1269 4.72467C17.491 4.84687 17.8461 4.99453 18.1894 5.16667C18.6866 5.41345 19.286 5.31487 19.6779 4.92184L20.646 3.95594C20.8152 3.78677 21.0895 3.78677 21.2587 3.95594L23.0978 5.79544C23.2667 5.9646 23.2667 6.23857 23.0978 6.40774L22.1315 7.3758C21.7378 7.7677 21.6394 8.3676 21.8871 8.86474C22.0589 9.20799 22.2065 9.56289 22.3286 9.92684C22.5064 10.4523 23.0003 10.805 23.555 10.8026H24.9178C25.1571 10.8026 25.3511 10.9966 25.3511 11.2359V13.8359C25.3511 14.0752 25.1571 14.2693 24.9178 14.2693H23.555C23.0005 14.267 22.5067 14.6198 22.3291 15.145C22.2069 15.5091 22.0592 15.8642 21.8871 16.2076C21.6399 16.7047 21.7385 17.3043 22.1319 17.6961L23.0982 18.6641C23.2674 18.8334 23.2674 19.1077 23.0982 19.2769L21.2583 21.1159C21.0891 21.2848 20.8152 21.2848 20.646 21.1159L19.2221 19.695C19.0556 19.5231 18.7812 19.5188 18.6093 19.6853C18.4374 19.8518 18.4331 20.1262 18.5996 20.298C18.6031 20.3016 18.6066 20.3052 18.6102 20.3086L20.0337 21.7295C20.5413 22.2368 21.3639 22.2368 21.8715 21.7295L23.7105 19.8909C24.218 19.3833 24.218 18.5604 23.7105 18.0527L22.7455 17.0859C22.6155 16.9579 22.5819 16.7611 22.6619 16.5971C22.8525 16.2174 23.016 15.8247 23.1511 15.4219C23.2101 15.2496 23.3728 15.1343 23.555 15.1359H24.9178C25.6358 15.1359 26.2178 14.5539 26.2178 13.8359V11.2359C26.2178 10.518 25.6358 9.93594 24.9178 9.93594Z" fill="white"/>
<path d="M18.5009 8.55274C16.2996 6.35612 12.7357 6.35612 10.5345 8.55274C10.3682 8.72488 10.373 8.99923 10.5451 9.16547C10.7131 9.32765 10.9793 9.32765 11.1472 9.16547C12.9962 7.29152 16.0142 7.27132 17.8881 9.1203C19.7621 10.9693 19.7823 13.9873 17.9333 15.8612C17.9184 15.8764 17.9033 15.8915 17.8881 15.9064C17.716 16.0727 17.7112 16.347 17.8775 16.5191C18.0438 16.6913 18.3181 16.696 18.4903 16.5298C18.4938 16.5263 18.4974 16.5227 18.5009 16.5191C20.6975 14.3179 20.6975 10.754 18.5009 8.55274Z" fill="white"/>
</g>
<defs>
<clipPath id="clip0">
<rect width="26" height="26" fill="white" transform="translate(0.217773 0.835938)"/>
</clipPath>
</defs>
</svg>

<svg width="27" height="27" fill="none" xmlns="http://www.w3.org/2000/svg"><g clip-path="url(#clip0)" fill="#fff"><path d="M16.251 16.003h-.477a.426.426 0 01-.4-.28 7.092 7.092 0 00-.172-.409.427.427 0 01.087-.483l.34-.34a1.303 1.303 0 00-.002-1.838l-1.225-1.224a1.303 1.303 0 00-1.837 0l-.34.34a.43.43 0 01-.484.086 9.363 9.363 0 00-.409-.174.426.426 0 01-.28-.402v-.476a1.3 1.3 0 00-1.3-1.3H8.017a1.3 1.3 0 00-1.3 1.3v.476c0 .18-.112.34-.28.402-.139.053-.274.11-.409.17a.429.429 0 01-.483-.086l-.34-.34a1.303 1.303 0 00-1.837 0l-1.225 1.228a1.303 1.303 0 000 1.838l.34.34c.127.126.162.32.086.483-.061.134-.118.27-.171.41a.426.426 0 01-.405.279h-.476a1.3 1.3 0 00-1.3 1.3v1.733a1.3 1.3 0 001.3 1.3h.476c.18 0 .34.112.402.28.053.139.11.274.17.409a.427.427 0 01-.086.483l-.34.34a1.303 1.303 0 000 1.837l1.225 1.225a1.303 1.303 0 001.837 0l.34-.34a.429.429 0 01.483-.086c.135.061.27.118.41.173.17.06.283.222.283.402v.477a1.3 1.3 0 001.3 1.3H9.75a1.3 1.3 0 001.3-1.3v-.477c0-.179.112-.34.28-.4.139-.054.274-.11.409-.172a.428.428 0 01.483.087l.34.34c.51.504 1.33.503 1.837-.002l1.225-1.225a1.303 1.303 0 000-1.837l-.34-.34a.427.427 0 01-.086-.484c.061-.134.118-.27.173-.409a.426.426 0 01.402-.281h.477a1.3 1.3 0 001.3-1.3v-1.733a1.3 1.3 0 00-1.3-1.3zm.433 3.033c0 .24-.194.433-.433.433h-.477a1.304 1.304 0 00-1.213.838 5.646 5.646 0 01-.149.359c-.223.492-.12 1.07.26 1.454l.339.34a.43.43 0 010 .612l-1.225 1.225a.433.433 0 01-.612 0l-.34-.34a1.303 1.303 0 00-1.454-.26 6.295 6.295 0 01-.358.15 1.304 1.304 0 00-.838 1.212v.477c0 .24-.194.433-.433.433H8.018a.433.433 0 01-.434-.433v-.477a1.304 1.304 0 00-.838-1.213 6.006 6.006 0 01-.358-.149 1.304 1.304 0 00-1.454.26l-.34.339a.433.433 0 01-.612 0l-1.225-1.223a.433.433 0 010-.613l.339-.34c.38-.384.483-.962.26-1.454a6.256 6.256 0 01-.15-.358 1.304 1.304 0 00-1.212-.839h-.476a.433.433 0 01-.434-.433v-1.733c0-.24.194-.434.434-.434h.476a1.305 1.305 0 001.214-.838c.046-.121.095-.24.149-.358.223-.492.12-1.07-.26-1.454l-.34-.34a.433.433 0 010-.613l1.224-1.224c.17-.17.443-.17.613 0l.34.339c.383.38.962.483 1.454.26.117-.053.237-.103.357-.15.503-.191.837-.673.84-1.212v-.476c0-.24.193-.434.433-.434H9.75c.24 0 .433.194.433.434v.476c.002.539.335 1.021.839 1.214.12.046.24.095.358.149.492.223 1.07.12 1.454-.26l.34-.34a.436.436 0 01.613 0l1.224 1.226a.43.43 0 010 .612l-.34.34a1.305 1.305 0 00-.26 1.454c.054.118.104.237.15.358.193.502.674.835 1.212.837h.477c.24 0 .433.194.433.434v1.733z"/><path d="M12.776 17.996a3.928 3.928 0 00-.078-.64c-.015-.07-.035-.14-.054-.21a3.788 3.788 0 00-.148-.444 3.855 3.855 0 00-.19-.405l-.016-.03a3.84 3.84 0 00-.39-.569c-.012-.016-.026-.03-.04-.046a3.58 3.58 0 00-.185-.204c-.034-.035-.07-.068-.105-.102a4.219 4.219 0 00-.29-.25l-.072-.054a3.873 3.873 0 00-2.324-.773c-.043 0-.086.007-.13.008a3.737 3.737 0 00-.425.036 3.963 3.963 0 00-.42.078 3.902 3.902 0 00.003 7.557c.007 0 .014.002.022.004.15.037.301.066.454.086.1.013.202.016.303.02.068.004.13.014.2.014.124 0 .253-.008.383-.021.014 0 .028-.004.044-.006.105-.012.212-.027.32-.049.044-.008.084-.019.126-.028.076-.018.152-.037.23-.06.06-.018.12-.04.179-.06.06-.02.12-.043.182-.067.062-.023.113-.05.17-.076.072-.033.144-.066.216-.105h.002a5.131 5.131 0 001.111-.803c.09-.083.168-.179.232-.284a4.626 4.626 0 00.682-2.033 4.68 4.68 0 00.012-.235c0-.025.004-.048.004-.073 0-.06-.006-.117-.008-.176zm-.864.284c0 .036-.003.072-.005.107a3.04 3.04 0 01-1.562 2.438 3.36 3.36 0 01-.16.08l-.035.017a3.127 3.127 0 01-.79.239l-.059.01a3.078 3.078 0 01-.372.029h-.09a3.054 3.054 0 01-.307-.019l-.052-.006a3.033 3.033 0 01-.357-5.943 3 3 0 011.132-.07c.033.003.065.01.098.014.093.015.186.033.278.057.03.007.06.014.089.023.23.066.452.16.66.278l.1.06c.068.043.134.087.2.136.035.026.07.05.104.078.085.068.167.14.244.217.03.03.06.065.089.098a3.011 3.011 0 01.363.485l.066.108c.056.103.106.209.149.317l.048.13c.028.08.052.16.073.242.011.044.023.082.032.124.026.117.044.236.055.355.003.032.003.064.005.096.006.1.008.2.004.3zm13.006-8.344h-1.363a.423.423 0 01-.404-.284 9.033 9.033 0 00-.486-1.175.424.424 0 01.083-.49l.966-.967a1.3 1.3 0 000-1.838l-1.842-1.84a1.3 1.3 0 00-1.838 0l-.966.966a.424.424 0 01-.489.084 9 9 0 00-1.175-.49.423.423 0 01-.286-.403V2.136a1.3 1.3 0 00-1.3-1.3h-2.6a1.3 1.3 0 00-1.3 1.3v1.363a.423.423 0 01-.284.404 9.034 9.034 0 00-1.175.488.423.423 0 01-.49-.083l-.967-.966a1.303 1.303 0 00-1.838 0L5.325 5.18a1.3 1.3 0 000 1.838l1.421 1.424a.433.433 0 00.614-.612L5.938 6.408a.433.433 0 010-.613l1.839-1.84a.436.436 0 01.613 0l.968.967c.391.394.992.493 1.489.245.343-.172.698-.32 1.062-.442a1.29 1.29 0 00.875-1.226V2.136c0-.24.194-.433.434-.433h2.6c.24 0 .433.194.433.433v1.363a1.29 1.29 0 00.876 1.226c.364.122.72.27 1.062.442a1.291 1.291 0 001.489-.245l.968-.966c.17-.17.444-.17.613 0l1.839 1.84a.433.433 0 010 .612l-.966.968a1.29 1.29 0 00-.245 1.489c.172.343.32.698.442 1.062.177.525.671.878 1.226.876h1.363c.24 0 .433.194.433.433v2.6c0 .24-.194.433-.433.433h-1.363a1.289 1.289 0 00-1.226.876c-.122.364-.27.72-.442 1.063a1.29 1.29 0 00.245 1.488l.966.968c.17.17.17.444 0 .613l-1.84 1.839a.433.433 0 01-.612 0l-1.424-1.421a.433.433 0 00-.622.603l.01.01 1.424 1.422a1.3 1.3 0 001.838 0l1.838-1.84a1.3 1.3 0 000-1.837l-.965-.967a.425.425 0 01-.083-.489c.19-.38.354-.772.49-1.175a.423.423 0 01.403-.286h1.363a1.3 1.3 0 001.3-1.3v-2.6a1.3 1.3 0 00-1.3-1.3z"/><path d="M18.5 8.553a5.639 5.639 0 00-7.966 0 .433.433 0 00.613.612 4.767 4.767 0 116.741 6.741.433.433 0 10.602.624l.01-.01a5.639 5.639 0 000-7.967z"/></g><defs><clipPath id="clip0"><path fill="#fff" transform="translate(.218 .836)" d="M0 0h26v26H0z"/></clipPath></defs></svg>
